assets/features/channel/europe-and-america/bancomat.svg

<svg width="80" height="80" viewBox="0 0 80 80" fill="none" xmlns="http://www.w3.org/2000/svg">
<rect width="80" height="80" rx="8" fill="#41B6E6"/>
<path d="M54.2448 35.9623H51.1907L51.1346 35.7169C55.3524 34.511 57.0512 32.0173 57.0512 29.1286C57.0512 25.422 54.2541 22.8045 49.6391 22.7998H39.6987L36.3572 28.5724H44.545C46.8584 28.5724 48.896 29.1544 48.896 31.7976C48.896 34.9503 45.9938 35.9787 43.0262 35.9787H32.0693L28.6717 41.8518H39.2524C42.935 41.8518 43.8767 43.448 43.8767 45.32C43.8767 47.7038 42.3485 49.8142 38.2382 49.8142H24.059L20.0188 56.7998H40.0726C48.1413 56.7998 52.2001 53.0581 52.2001 47.9913C52.2001 44.5675 50.3471 42.817 47.716 42.0925L47.7814 41.8284H59.9814V41.2722C59.9814 38.1148 58.2055 35.96 54.2448 35.9646V35.9623Z" fill="white"/>
</svg>

<svg xmlns="http://www.w3.org/2000/svg" width="80" height="80" fill="none" viewBox="0 0 80 80"><rect width="80" height="80" fill="#41b6e6" rx="8"/><path fill="#fff" d="M54.245 35.962H51.19l-.056-.245c4.217-1.206 5.916-3.7 5.916-6.588 0-3.707-2.797-6.324-7.412-6.33H39.7l-3.342 5.773h8.188c2.313 0 4.351.582 4.351 3.226 0 3.152-2.902 4.18-5.87 4.18H32.07l-3.397 5.874h10.58c3.683 0 4.625 1.596 4.625 3.468 0 2.384-1.529 4.494-5.639 4.494H24.06L20.02 56.8h20.054c8.068 0 12.127-3.742 12.127-8.809 0-3.423-1.853-5.174-4.484-5.898l.065-.265h12.2v-.556c0-3.157-1.776-5.312-5.736-5.307z"/></svg>
